X:1
T:Losing My Religion
C:REM
N:durinsbane, Melenor
Q:1/4=130
V:1
M:4/4
L:1/8
K:C
dedc |A3 AA A2 A |A A2 Gdedc |A3 AA A2 AA A2 Adedc |A3 AA A2 A |A A2 Ededc |A2 A2 A A2 G |G4 A2 E2 EG E2 B |A2 A2 A A3 |GDBB B2 GB |B2 G c2 BGBBA E2 z E2 D |c2 c2 c2 cB |BG E2 z2 GB, |BB G c2 EBBA A2 A2 A A2 A |A2 A2 A A3 |G2 B2 B2 B2 |c2 G2 B A2 A |F3 A A3 AA A2 A,AABG |D3 G G3 G |G2 c2 ccBB |A2 A2 A A2 A |A2 c2 ccAB B2 G2 B2 G2 |c2 c2 c2 BB |A2 A2 A A2 A |A2 c2 c2 AB |B2 GB B2 GB B2 B2 ccBB |BAEG A2 AB |AD A2 D A3 |G2 B2 B2 B2 |c2 G2 B A2 A F3 A A3 A, |A A2 A A2 BG |D3 G G3 G |c2 cA c2 BB |A3 AA A2 A c2 cA c2 BA |E2 A2 A A2 A |A A2 A2 c3 |c2 c2 c2 c2 c4 B3 A E2 A2 A A2 G |GCDEccBB |BA E2 EEGB |c2 c2 c c2 B A2 GGBB B2 GB |c2 cccBBB |AA E2 z E2 D |c2 c2 c2 cBBGG B2 EGB |BBG c2 Ec B2 A |BAAGAAGA |A2 A2 A A3 z2 G2 B2 B2 B2 |c2 G2 B A2 A |F3 A A3 A |A A2 A AABG |D3 G G3 G G2 cGccBB |A2 A2 A A2 A |ccccccAB |BBG A B2 GB |c2 c2 GcBBB |A2 A2 AAGA |A2 c2 c2 A B2 BB BBGB B2 B c2 cBB |AAEA A2 AB |BAAADA A2 |G2 B2 B2 BB c2 G2 c2 BBA |A3 A A3 A, |A A2 A2 F2 BBG |D3 G G3 G c2 cA c2 BB |A3 AA A2 A |c2 cA c2 BA |E2 A2 A A2 AA A2 A2 c3 |c2 c2 c2 c2 |c4 B3 A |E2 A2 A A2 G|GCDEAGEDeeeedeed |cccAAAAA |eeeeddee |cce eAAAE c2 c2 c2 Ac |c3 A A4 |c2 c2 c2 cc |A2 cEcc BB |A2 A2 A A2 A A2 c2 ccAB |B2 G2 B2 G2 |c2 c2 c2 BB |A2 A2 A A2 A A2 c2 c2 AB |B2 GB B2 GB |B2 B2 ccBB |BAE G A2 AB |AD A2 D A3 G2 B2 B2 B2 |c2 G2 B A3 A |A A2 A A2 BG |D3 G G3 G |c2 cA c2 BB A3 AA A2 AF |c2 cA c2 BA |E2 A2 A A2 A |A A2 A2 c3 c2 c2 c2 c2 |c2 B3 A |A3 AA A2 A |A A2 Aded G c2 c2 c2 ccc c2 cdedc |c3 c c3 c |c3 c c2 z2 |c2 c2 c2 Acc A2 A c2 BA |A2 A2 c2 cG |G2 DDEG G3 ED |e eeeeeeeeeeeeeee |eeeeeeee |edcAdcAc |A8 |]
